X:1
T:Title
%%score { ( 1 4 ) | ( 2 3 ) }
L:1/8
M:4/4
K:F
V:1 treble nm="Grand Piano"
V:4 treble 
V:2 bass 
V:3 bass 
V:1
 z4 z2[Q:1/4=100] F2 | A3 A GF [B,DF]>[B,D] | [B,DF]6 [DFB]2 | A3 A BA c>A |[M:3/4] [CEG]6 | %5
[M:1/4] [Ec]2 |[M:4/4] c3 d cA f>[Fd] | [Fc]6 [A,F]2 | [CFA]3 [A,F] [B,EG]3 [A,CF] | %9
[M:3/4] [A,CF]6 |[M:1/4] [Fc]2 |[M:4/4] [Ec]4 z2 [EG]2 | F4 [FA]4 | c3 c c2 =B2 | [Ec]6 [Ec]2 | %15
 c3 d cA f>[Fd] | [Fc]6 [A,F]2 | [CFA]3 [A,F] [B,EG]3 [A,CF] |[M:3/4] [A,CF]6 |] %19
V:2
 z4 z2 [F,A,]2 | [F,CF]3 [F,CF] [F,B,C][F,A,C] B,,>B,, | B,,6 B,,2 | z4 .D2 A,2 |[M:3/4] C,6 | %5
[M:1/4] [C,B,]2 |[M:4/4] [F,A,F]3 [F,B,F] [F,A,F][F,CF] [B,,DF]>[B,,B,] | [F,A,]6 F,2 | %8
 C,3 C, C,3 F, |[M:3/4] F,6 |[M:1/4] [F,A,]2 |[M:4/4] [C,G,]C,C,[C,G,] [C,C][C,C][C,C]B, | %12
 [A,C]A,A,G, F,F,F,[K:treble][B,F] | [A,CF]3 [_A,DF] [G,EG]2 [G,DF]2 | [C,C]6 [C,B,]2 | %15
 [F,A,F]3 [F,B,F] [F,A,F][F,CF] [B,,DF]>[B,,B,] | [F,A,]6 F,2 | C,3 C, C,3 F, |[M:3/4] F,6 |] %19
V:3
 x8 | x8 | x8 | [F,CF]3 [F,CF] [F,F]-[F,CF] [F,F]->[F,CF] |[M:3/4] x6 |[M:1/4] x2 |[M:4/4] x8 | %7
 x8 | x8 |[M:3/4] x6 |[M:1/4] x2 |[M:4/4] x8 | x7[K:treble] x | x8 | x8 | x8 | x8 | x8 | %18
[M:3/4] x6 |] %19
V:4
 x8 | x8 | x8 | x8 |[M:3/4] x6 |[M:1/4] x2 |[M:4/4] x8 | x8 | x8 |[M:3/4] x6 |[M:1/4] x2 | %11
[M:4/4] z G,G,[EB] [EG]2 z C | z CC[CEB] CCCd | x8 | x8 | x8 | x8 | x8 |[M:3/4] x6 |] %19

